app/img/phone-icon.svg

<svg width="23" height="23" viewBox="0 0 23 23" fill="none" xmlns="http://www.w3.org/2000/svg">
<path d="M18.8651 22.9299C18.7851 22.9299 18.6951 22.9299 18.6151 22.9199C15.3851 22.5699 12.2451 21.4499 9.53508 19.6899C7.01508 18.0899 4.83508 15.9099 3.23508 13.3899C1.47508 10.6699 0.355079 7.51991 0.0150791 4.28991C-0.0649209 3.46991 0.175079 2.68991 0.695079 2.07991C1.20508 1.45991 1.93508 1.08991 2.72508 1.00991C2.81508 0.99991 2.90508 0.99991 2.99508 0.99991H5.99508C6.00508 0.99991 6.01508 0.99991 6.02508 0.99991C7.50508 0.99991 8.77508 2.09991 8.98508 3.57991C9.10508 4.46991 9.32508 5.33991 9.63508 6.17991C10.0451 7.26991 9.78508 8.50991 8.95508 9.33991L8.23508 10.0599C9.41508 11.8999 10.9751 13.4699 12.8251 14.6499L13.5451 13.9299C14.3751 13.1099 15.6251 12.8399 16.7151 13.2499C17.5451 13.5599 18.4251 13.7799 19.3051 13.8899C20.8151 14.0999 21.9251 15.4099 21.8951 16.9199V19.9099C21.8951 20.7099 21.5851 21.4599 21.0251 22.0299C20.4651 22.5999 19.7051 22.9099 18.9051 22.9199C18.8851 22.9299 18.8751 22.9299 18.8651 22.9299ZM6.01508 2.99991C6.00508 2.99991 6.00508 2.99991 6.01508 2.99991H2.99508C2.63508 3.02991 2.39508 3.14991 2.22508 3.35991C2.05508 3.55991 1.97508 3.81991 1.99508 4.08991C2.30508 6.99991 3.31508 9.83991 4.91508 12.3099C6.36508 14.5899 8.33508 16.5599 10.6151 18.0099C13.0751 19.6099 15.9151 20.6099 18.8151 20.9299C19.1651 20.9699 19.4051 20.8299 19.5951 20.6399C19.7851 20.4499 19.8851 20.1999 19.8851 19.9299V16.9299C19.8851 16.9199 19.8851 16.9099 19.8851 16.8999C19.8951 16.3899 19.5251 15.9599 19.0251 15.8899C18.0051 15.7599 16.9851 15.4999 16.0051 15.1399C15.6351 14.9999 15.2251 15.0899 14.9451 15.3599L13.6751 16.6299C13.3551 16.9499 12.8651 17.0099 12.4751 16.7899C9.81508 15.2799 7.61508 13.0699 6.10508 10.4199C5.88508 10.0299 5.94508 9.53991 6.26508 9.21991L7.53508 7.94991C7.80508 7.65991 7.89508 7.24991 7.75508 6.87991C7.38508 5.89991 7.13508 4.87991 6.99508 3.84991C6.93508 3.36991 6.50508 2.99991 6.01508 2.99991ZM17.8851 9.94991C17.4151 9.94991 16.9951 9.61991 16.9051 9.13991C16.5951 7.52991 15.3551 6.28991 13.7451 5.97991C13.2051 5.86991 12.8451 5.34991 12.9551 4.80991C13.0651 4.26991 13.5851 3.90991 14.1251 4.01991C16.5351 4.48991 18.3951 6.34991 18.8651 8.75991C18.9751 9.29991 18.6151 9.82991 18.0751 9.92991C18.0051 9.93991 17.9451 9.94991 17.8851 9.94991ZM21.8851 9.93991C21.3851 9.93991 20.9451 9.55991 20.8951 9.04991C20.4751 5.30991 17.5651 2.40991 13.8251 1.98991C13.2751 1.92991 12.8851 1.42991 12.9451 0.88991C13.0051 0.33991 13.5151 -0.0600903 14.0451 0.00990972C18.7251 0.52991 22.3551 4.15991 22.8751 8.82991C22.9351 9.37991 22.5451 9.86991 21.9951 9.93991C21.9551 9.93991 21.9151 9.93991 21.8851 9.93991Z" fill="#FF715B"/>
</svg>

<svg width="23" height="23" fill="none" xmlns="http://www.w3.org/2000/svg"><path d="M18.865 22.93c-.08 0-.17 0-.25-.01-3.23-.35-6.37-1.47-9.08-3.23-2.52-1.6-4.7-3.78-6.3-6.3a20.869 20.869 0 01-3.22-9.1c-.08-.82.16-1.6.68-2.21a3 3 0 012.03-1.07c.09-.01.18-.01.27-.01h3.03c1.48 0 2.75 1.1 2.96 2.58.12.89.34 1.76.65 2.6.41 1.09.15 2.33-.68 3.16l-.72.72c1.18 1.84 2.74 3.41 4.59 4.59l.72-.72c.83-.82 2.08-1.09 3.17-.68.83.31 1.71.53 2.59.64 1.51.21 2.62 1.52 2.59 3.03v2.99a3.005 3.005 0 01-2.99 3.01c-.02.01-.03.01-.04.01zM6.015 3c-.01 0-.01 0 0 0h-3.02c-.36.03-.6.15-.77.36-.17.2-.25.46-.23.73.31 2.91 1.32 5.75 2.92 8.22 1.45 2.28 3.42 4.25 5.7 5.7 2.46 1.6 5.3 2.6 8.2 2.92.35.04.59-.1.78-.29a.99.99 0 00.29-.71V16.9a.997.997 0 00-.86-1.01c-1.02-.13-2.04-.39-3.02-.75a1.01 1.01 0 00-1.06.22l-1.27 1.27a1 1 0 01-1.2.16 17.01 17.01 0 01-6.37-6.37 1 1 0 01.16-1.2l1.27-1.27c.27-.29.36-.7.22-1.07-.37-.98-.62-2-.76-3.03a.991.991 0 00-.98-.85zm11.87 6.95c-.47 0-.89-.33-.98-.81a3.966 3.966 0 00-3.16-3.16.999.999 0 01.38-1.96c2.41.47 4.27 2.33 4.74 4.74a.994.994 0 01-.79 1.17c-.07.01-.13.02-.19.02zm4-.01c-.5 0-.94-.38-.99-.89a7.968 7.968 0 00-7.07-7.06.998.998 0 01-.88-1.1c.06-.55.57-.95 1.1-.88 4.68.52 8.31 4.15 8.83 8.82.06.55-.33 1.04-.88 1.11h-.11z" fill="#FF715B"/></svg>
